X: 38
T: No_44_Looking_for_My_Horses.krn
N: Derived from No_44_Looking_for_My_Horses.krn
%%abc-version 2.0
%%abcx-abcm2ps-target-version 5.9.1 (29 Sep 2008)
%%abc-creator hum2abc beta
%%abcx-conversion-date 2019/03/15 08:27:55
%%humdrum-veritas 2982030717
%%humdrum-veritas-data 1656069122
%%linebreak <none>
%%barnumbers 0
L: 1/8
M: 2/4
%%staves {1 2}
V: 1 clef=bass
V: 2 clef=bass
K: F
[V:1] [K:clef=bass][M:2/4]C3/C/ C3/B,/ [I:setbarnb 2]| 
[V:2] [K:clef=bass][M:2/4]G,,2G,,2 | 
[V:1] CCA,2 | 
[V:2] G,,2G,,2 | 
[V:1] [M:3/4]A,2A,2A, z | 
[V:2] [M:3/4]z6 | 
[V:1] [M:2/4]C3/C/ C3/B,/ | 
[V:2] [M:2/4]z4 | 
[V:1] CCA,2 | 
[V:2] z4 | 
[V:1] [M:3/4]A,2A,2A, z | 
[V:2] [M:3/4]z6 | 
[V:1] [M:2/4]A,2C3/A,/ | 
[V:2] [M:2/4]z4 | 
[V:1] A,2F,2 | 
[V:2] z4 | 
[V:1] F,2C, z | 
[V:2] z4 | 
[V:1] A,2C3/A,/ | 
[V:2] z4 | 
[V:1] A,2F,2 | 
[V:2] z4 | 
[V:1] F,2C, z | 
[V:2] z4 | 
[V:1] [M:3/4]C,3/C/ !accent!CA,/ z/ !accent!C z | 
[V:2] [M:3/4]z6 | 
[V:1] !accent!C,3/C/ !accent!CA,/ z/ C z :|]  
[V:2] z6 :|]  



